!!!COM: Palestrina, Giovanni Perluigi da
!!!OPR: Missa Aspice Domine
!!!OMD: Kyrie
!!!OTL: Christe
**kern	**kern	**kern	**kern
*Itenor	*Itenor	*Icalto	*Icant
!Tenor 2	!Tenor 1	!Altus	!Cantus
*clefGv2	*clefGv2	*clefG2	*clefG2
*k[]	*k[]	*k[]	*k[]
*D:dor	*D:dor	*D:dor	*D:dor
*M4/2	*M4/2	*M4/2	*M4/2
=33	=33	=33	=33
1r	0r	1.a	0r
[1A	.	.	.
.	.	2a	.
=34	=34	=34	=34
2A]	1.e	2.cc	0r
2A	.	.	.
.	.	4b	.
2.c	.	2a	.
.	2e	2g	.
4B	.	.	.
=35	=35	=35	=35
2A	2f	2cc	0r
2G	2g	2.b	.
2c	2e	.	.
.	.	4a	.
2d	2f	[2a	.
=36	=36	=36	=36
1B-	1.d	2a]	1r
.	.	2g	.
1A	.	2f	[1a
.	2c	2e	.
=37	=37	=37	=37
1r	1f	1d	2a]
.	.	.	2a
2.A	[1e	2c	2.cc
.	.	[2cc	.
4B	.	.	4b
=38	=38	=38	=38
4c	1e]	2cc]	2a
4d	.	.	.
2e	.	2.b	2g
2f	1r	.	2cc
.	.	4a	.
2d	.	[2a	2dd
=39	=39	=39	=39
1e	0r	2a]	1b
.	.	2g#	.
2f	.	4a	2a
.	.	4g	.
[2d	.	4f	[2dd
.	.	4e	.
=40	=40	=40	=40
4d]	1.d	1f	2dd]
4e	.	.	.
4f	.	.	2dd
4g	.	.	.
1a	.	4d	2.ff
.	.	4e	.
.	2d	4f	.
.	.	4g	4ee
=41	=41	=41	=41
0r	2.f	0a	2dd
.	.	.	2cc
.	4e	.	.
.	2d	.	2ff
.	2c	.	[2ee
=42	=42	=42	=42
1r	1f	2r	4ee]
.	.	.	4dd
.	.	1a	2dd
[1A	[1e	.	2.cc
.	.	2a	.
.	.	.	4b
=43	=43	=43	=43
2A]	1e]	2.cc	4a
.	.	.	4b
2A	.	.	4cc
.	.	4b	4dd
2.c	2r	2a	2ee
.	2e	2g	[2ee
4B	.	.	.
=44	=44	=44	=44
2A	2e	2cc	2ee]
2G	1g	1b	2dd
2c	.	.	2ee
2d	2f	[2a	[2ff
=45	=45	=45	=45
1B-	2.d	4a]	4ff]
.	.	8g	4ee
.	.	8f	.
.	.	2g	1dd
.	4e	.	.
1A	2f	1a	.
.	2e	.	2cc
=46	=46	=46	=46
1r	2.d	2r	4b-
.	.	.	4a
.	.	1d	1a
.	4c	.	.
2r	1B-	.	.
[2d	.	2d	2g
=47	=47	=47	=47
2d]	1A	2f	0a
2c	.	2e	.
2f	1r	2d	.
2e	.	2c	.
=48	=48	=48	=48
2.d	0r	2.f	2r
.	.	.	1dd
4e	.	4g	.
2f	.	2a	.
2g	.	2b-	2dd
=49	=49	=49	=49
2d	2r	0a	2.ff
2e	1d	.	.
.	.	.	4ee
4f	.	.	1dd
4e	.	.	.
4f	2d	.	.
4g	.	.	.
=50	=50	=50	=50
1a	2.f	2r	2cc
.	.	2a	1ff
.	4e	.	.
1r	2d	2a	.
.	2c	2cc	2ee
=51	=51	=51	=51
0r	2g	2b	2dd
.	2a	2.cc	4cc
.	.	.	4b
.	1f	.	4a
.	.	4b	4b
.	.	[2a	4cc
.	.	.	4a
=52	=52	=52	=52
2r	1e	2a]	1b
1e	.	2g#	.
.	1A	[1a	2a
2e	.	.	2cc
=53	=53	=53	=53
2.f	0r	2a]	2cc
.	.	2d	1ff
4e	.	.	.
2d	.	2f	.
2c	.	2g	[2ee
=54	=54	=54	=54
2f	1r	2a	4ee]
.	.	.	4dd
2g	.	2b-	1dd
[1e	[1A	1a	.
.	.	.	4cc
.	.	.	4b
=55	=55	=55	=55
1e]	2A]	2r	2.cc
.	2A	2a	.
.	.	.	4dd
1A	2.c	2a	2ee
.	.	[2cc	2ee
.	4B	.	.
=56	=56	=56	=56
2c	2A	2cc]	2ee
2d	2G	2b	1gg
2e	2c	2a	.
[2f	2d	[2a	4ff
.	.	.	4ee
=57	=57	=57	=57
4f]	0B-	2a]	0dd
4e	.	.	.
4d	.	4g	.
4c	.	4f	.
1d	.	1g	.
=58	=58	=58	=58
[0e	[0A	[0a	[0cc#
=59	=59	=59	=59
0e]	0A]	0a]	0cc#]
==	==	==	==
*-	*-	*-	*-
!!!CDT: 1525/^1526/-1594/2/2
!!!OCY: Italia
!!!AGN: Mass (Parody)
!!!AST: renaissance, vocal
!!!ASW: Motet (Jacquet)
!!!PWK: Masses, Book 2
!!!RNB: Cadence finals: A
!!!YOR: Le Opere Complete, v. 4, p. 91
!!!YOO: Rome, Italy: Fratelli Scalera
!!!END: 1992//
!!!EED: John Miller
!!!YEC: Copyright 2000, John Miller
!!!YEN: United States of America
!!!YEM: Rights to all derivative electronic formats reserved.
!!!YEM: Refer to licensing agreement for further details.
!!!YEM: This file must be accompanied by the licensing agreement.
!!!YEM: A copy of the licensing agreement may be found at http://www.music-cog.ohio-state.edu/HumdrumDatabases/Palestrina/license.txt
!!!EMD: converted to Humdrum by Bret Aarden
